X:1
T:Ecco felici amanti
T:Ecco felici amanti
T:Marc'Antonio Tornioli
T:Source : Canzonette spirituali a tre voci---Libro Primo---Venetia---Ang.Gardano---1607. Editor : André Vierendeels (21/06/16).
T:Notes : Original clefs: C1, C1, F4 Editorial accidentals above the staff
T:©
T:©
C:Marc'Antonio Tornioli
Z:©
%%score [ 1 2 3 ]
L:1/8
Q:1/4=102
M:4/4
K:F
V:1 treble nm="Soprano 1" snm="S 1"
V:2 treble nm="Soprano 2" snm="S 2"
V:3 bass nm="Bass" snm="B"
V:1
 z2 d2 cBcA | B4 A2 B2- | B2 c2 A4 | =B8 | B2 BB c2 d2- | d2 ^c2 d4 :: z4 E2 F2 | G2 FE D4 | %8
w: Ec- co fe- li- ce'a-|man- ti'a- mor|_ senz' a-|li,|ec- co- lo sen- za|_ stra- li,|non fe-|ri- sc'e non vo-|
w: Nel bel se- ren di|que- sta not-|* te'ar- den-|te,|lo- da- no Dio na-|scen- * te,|su'in Ciel|le va- ghe stel-|
 C2 c4 B2- | B2 A4 G2- | G2 G4 F2- | F2 E2 G2 c2 | cdBA G4- | G4 ^F4 | B2 BB c2 d2- | d2 ^c2 d4 | %16
w: la, le- ga-|* te lui,|_ le- ga-|* te lui che'i|vo- stro cor' in- vo-|* la,|ec- co- lo sen- za|_ stra- li,|
w: le, el' An-|* ge- li|_ che schier|_ or- na- t'e|bel- * * * *|* le,|lo- da- no'id- dio na-|* scen- te,|
 z2 d2 cBcA | B4 A2 B2- | B2 c2 A4 | G8 :| %20
w: ec- co fe- li- ci'a-|man- ti'a- mor|_ senz' a-|li.|
w: nel bel se- ren di|que- sta not-|* te'ar- den-|te.|
V:2
 z4 A4 | GFGE F2 G2 | G2 E2 ^F4 | G4 d2 dd | d2 G2 A2 GF | E4 ^F4 :: A2 B2 c2 BA | G4 A4 | %8
w: Ec-|co fe- li- ce'a- man- ti'a-|mor senz' a-|li, ec- co- lo|sen- za stra- * *|* li,|non fe- ri- sc'e non|vo- la,|
w: Nel|bel se- ren di que- sta|not- te'ar- den-|te, lo- da- no|Dio na- scen- * *|* te,|su'in Ciel le va- ghe|stel- le,|
 z2 A2 G4 |"^-natural" F4 E4 | E4 D4 | C4 D2 G2 | AFGA c4 | A4 d2 dd | d2 G2 A2 GF | E4 ^F4 | %16
w: le- ga-|te lui,|le- ga-|te lui che'i|vo- stro cor' in- vo-|la, ec- co- lo|sen- za stra- * *|* li,|
w: el' An-|ge- li-|che schier|or- na- t'e|bel- * * * *|le, lo- da- no'id-|dio na- scen- * *|* te,|
 z4 A4 | GFGE F2 G2 |"^-natural" G2 E2 ^F4 | G8 :| %20
w: ec-|co fe- li- ci'a- man- ti'a-|mor senz' a-|li.|
w: nel|bel se- ren di que- sta|not- te'ar- den-|te.|
V:3
 B,4 A,G,A,F, | G,4 F,2 _E,2- | E,2 C,2 D,4 | G,,8 | G,2 G,G, F,2 D,2 | A,4 D,4 :: %6
w: Ec- co fe- li- ce'a-|man- ti'a- mor|_ senz' a-|li,|ec- co- lo sen- za|stra- li,|
w: Nel bel se- ren di|que- sta not-|* te'ar- den-|te,|lo- da- no Dio na-|scen- te,|
"^-natural" F,2 G,2 A,2 G,F, | E,4 F,4 | F,4 _E,4 | D,4 C,4 | C4 B,4 | A,4 G,2 E,2 | F,D,G,F, E,4 | %13
w: non fe- ri- sc'e non|vo- la,|le- ga-|te lui,|le- ga-|te lui che'i|vo- stro cor' in- vo-|
w: su'in Ciel le va- ghe|stel- le,|el' An-|ge- li-|che schier|or- na- t'e|bel- * * * *|
 D,8 | G,2 G,G, F,2 D,2 | A,4 D,4 | B,4 A,G,A,F, | G,4 F,2 _E,2- | E,2 C,2 D,4 | G,,8 :| %20
w: la,|ec- co- lo sen- za|stra- li,|ec- co fel- li- ci'a-|man- ti'a- mor|_ senz' a-|li.|
w: le,|lo- da- no'id- dio na-|scen- te,|nel bel se- ren di|que- sta not-|* te'ar- den-|te.|

